assets/marketplace/bankings.svg

<svg fill="none" height="18" viewBox="0 0 26 18" width="26" xmlns="http://www.w3.org/2000/svg"><g fill="#fff"><path d="m23.3508.345703h-19.95541c-.82695 0-1.49977.672827-1.49977 1.499767v.25582h-.05015c-.82694 0-1.499767.67283-1.499767 1.49977v12.55254c0 .827.672827 1.4998 1.499767 1.4998h19.95543c.8269 0 1.5-.6728 1.5-1.4998v-.2558h.0499c.8269 0 1.4997-.6728 1.4997-1.4998v-12.55253c0-.82694-.6728-1.499767-1.4997-1.499767zm-.4751 15.127397v.2125.2125.2558c0 .5927-.4822 1.0748-1.0751 1.0748h-19.95541c-.59266 0-1.074826-.4821-1.074826-1.0748v-12.55284c0-.59266.482166-1.07483 1.074826-1.07483h.05014.21247.21248 19.48032c.5929 0 1.0751.48217 1.0751 1.07483zm1.5499-1.0751c0 .5927-.4822 1.0749-1.0748 1.0749h-.0499v-11.87184c0-.82694-.6728-1.49977-1.5-1.49977h-19.48062v-.25582c0-.59265.48217-1.074823 1.07482-1.074823h19.9554c.5926 0 1.0748.482173 1.0748 1.074823z"/><path clip-rule="evenodd" d="m3.39584 0h19.95536c1.0181 0 1.8459.827807 1.8459 1.84592v12.55258c0 .9177-.6725 1.6808-1.5508 1.8224-.0353.9873-.8493 1.7791-1.845 1.7791h-19.95538c-1.018113 0-1.84592-.8278-1.84592-1.8459v-12.55259c0-.91779.672703-1.68093 1.55111-1.82242.03528-.987264.84898-1.77909 1.84473-1.77909zm19.13416 3.60151c0-.40142-.3272-.72867-.729-.72867h-19.95536c-.40148 0-.72867.32719-.72867.72867v12.55289c0 .4014.32719.7286.72867.7286h19.95536c.4018 0 .729-.3272.729-.7286zm1.1175 11.46259c.2545-.1139.4324-.3695.4324-.6656l-.0003-12.55258c0-.40148-.3272-.72867-.7287-.72867h-19.95535c-.3709 0-.67839.27925-.72309.63834h19.12884c1.0184 0 1.8462.82776 1.8462 1.84592zm0 .3677c-.0941.027-.1936.0415-.2963.0415h-.0498v-11.87179c0-.82694-.6729-1.49977-1.5001-1.49977h-19.48057v-.25582c0-.03042.00127-.06055.00376-.09033.04603-.55055.50883-.984492 1.07106-.984492h19.95535c.5927 0 1.0749.482172 1.0749 1.074822l.0002 12.55258c0 .4899-.3295.9043-.7785 1.0333zm-20.25166-15.085646h19.95536c.827 0 1.4998.672826 1.4998 1.499766v12.55258c0 .8269-.6728 1.4998-1.4998 1.4998h-.0498v.2558c0 .8269-.6732 1.4997-1.5001 1.4997h-19.95538c-.82694 0-1.499766-.6728-1.499766-1.4997v-12.55259c0-.82694.672826-1.49977 1.499766-1.49977h.05015v-.25582c0-.82694.67283-1.499766 1.49977-1.499766zm19.48026 3.255356c0-.59266-.4821-1.07483-1.0751-1.07483h-19.95536c-.59266 0-1.074825.48217-1.074825 1.07483v12.55289c0 .5926.482165 1.0748 1.074825 1.0748h19.95536c.593 0 1.0751-.4822 1.0751-1.0748z" fill-rule="evenodd"/><path d="m20.3319 13.5433v.0001c.0083.0509.0141.1034.0153.158.0001.0025.0004.0058.0007.0096.0009.0133.0024.033.0024.0491 0 .0308-.0023.0614-.0043.0876-.0003.0039-.0005.0078-.0008.0115v.0002c-.0328.4427-.2808.8279-.6437 1.0609-.0994.0639-.2074.1145-.3199.1534-.155.0535-.3221.0844-.4973.0844-.1751 0-.342-.0309-.497-.0844-.1052-.0364-.2065-.0829-.3004-.1411-.0939.0582-.1952.1047-.3003.1411h-.0001c-.1552.0535-.322.0844-.4972.0844s-.3421-.0309-.4972-.0844h-.0001c-.1125-.0389-.2205-.0895-.3199-.1534zm0 0c-.0579-.3525-.253-.6607-.5309-.8735m.5309.8735-.6826-.9743c.0517.0303.1029.0634.1517.1008m-.8711-.2058c-.0065-.0002-.0129-.0006-.0193-.001-.0084-.0005-.0169-.0011-.0255-.0011-.0377 0-.075.0025-.1121.0054-.0512.004-.1019.0101-.1515.0194l-.0183-.0983h-.0001c-.1873.0349-.3614.1046-.5158.2006-.2175-.1352-.4742-.2163-.75-.2249l-.0005-.0001c-.0045-.0001-.0089-.0004-.0156-.0008-.0009 0-.0018-.0001-.0028-.0002-.0076-.0005-.0178-.0011-.0289-.0011-.0418 0-.0823.0028-.1198.0056l-.0002.0001zm0 0c.1859.0057.3623.0467.5223.1165.0506.0221.0995.0471.1465.0747m-.6688-.1912.6688.1912m.2023.0146-.0609.0794m.0609-.0794h-.0001l-.0608.0794m0 0c-.0447-.0343-.0923-.0652-.1414-.094m.1414.094-.1414-.094m-2.4214-.1879c.0372-.0029.0745-.0054.1122-.0054.0086 0 .0169.0006.0252.0011.0065.0004.0129.0008.0195.001zm0 0c-.0511.004-.1019.0101-.1514.0194zm.0103.2903.0089.0996c.0141-.0013.0292-.0032.0416-.0048.0045-.0006.0086-.0011.0122-.0016.0156-.0019.0278-.0029.0392-.0029.0015 0 .0043.0001.0123.0012.0008.0001.0017.0002.0027.0004.0069.0009.0186.0025.0304.0032h.001c.1306.0059.254.0357.3653.0852-.0702.0917-.1292.1918-.1747.2989l-.0001.0002c-.0228.0539-.0414.1091-.057.1646v.0001c-.0158.0565-.0282.1147-.0363.1743l.0991.0135-.099-.0139c-.0082.0589-.0142.1204-.0142.1845 0 .3082.1059.5921.2826.8224-.1251.057-.2643.0896-.4119.0896-.5371 0-.9652-.414-.9652-.912 0-.4244.3114-.7852.7371-.8835l.0003-.0001c.041-.0096.0849-.0146.1351-.0194zm0 0c-.0506.0047-.1003.0103-.1485.0215l.728.0791c-.1294-.0617-.2739-.0985-.4267-.1054-.0074-.0004-.0147-.0014-.022-.0024-.0095-.0013-.019-.0025-.0289-.0025-.0226 0-.0444.0028-.0661.0055-.0119.0016-.0238.0031-.0358.0042zm2.7599.9745-.0999.0021c.0001.0069.0007.0129.0013.0174l.0015.0101c0 .0003.0001.0007.0001.001-.0003.0194-.0027.0358-.0059.0576-.0017.012-.0037.0256-.0058.0423v.0001l-1.47-.8703c.0871-.0527.1843-.092.2884-.116l.0003-.0001c.041-.0096.0849-.0146.1351-.0194l-.0094-.0995m1.1643.9747-.0999.0032c-.0014-.0449-.0061-.0887-.014-.1312v-.0001c-.0333-.1802-.1216-.3422-.2503-.4704-.0318-.0317-.0684-.0606-.1096-.0909-.0378-.0277-.0781-.0524-.1213-.0753h-.0002c-.1261-.0669-.268-.1078-.4208-.1149h-.0008c-.0119-.0007-.0235-.0023-.0305-.0032-.001-.0002-.0019-.0003-.0026-.0004-.0081-.0011-.0108-.0012-.0124-.0012-.0113 0-.0236.0011-.0393.003-.0036.0004-.0078.0009-.0123.0015-.0124.0016-.0274.0035-.0413.0048l-.009-.0996m1.1643.9747c.0001.0046.0008.009.0015.0134.0008.0047.0016.0095.0016.0144zm-1.1643-.9747c-.0505.0048-.1003.0103-.1484.0215l.8981.1832c-.0423-.0311-.0869-.0583-.1338-.0831-.1388-.0736-.2951-.1186-.463-.1264-.0075-.0004-.0148-.0014-.0221-.0024-.0095-.0012-.019-.0025-.0289-.0025-.0227 0-.0446.0028-.0664.0056-.0118.0015-.0236.003-.0355.0041zm-.8629 1.0111h-.0002c.0023.2235.0935.4273.2409.5872.0308.0333.0637.0641.0994.093l-.063.0777.0628-.0779c.0376.0304.0721.0568.1086.0789zm0 0v-.0105m0 .0105v-.0105m0 0c0-.0423.0065-.0841.0148-.1348m-.0148.1348.0148-.1348m0 0c.0072-.0446.0185-.0879.0332-.1322l.0001-.0001m-.0333.1323.0333-.1323m0 0c.0404-.1222.1057-.2327.1926-.327zm.2922-.42c-.0359.0292-.0691.0599-.0996.093zm0 0c.0367-.0299.0715-.0563.1081-.0785zm-1.2531-.6825c-.6703.1251-1.1842.689-1.1842 1.3717 0 .4844.2595.91.6488 1.1602zm.611.8875c-.0209.0494-.0381.1005-.0528.1527z" stroke="#fff" stroke-width=".2"/><g clip-rule="evenodd" fill-rule="evenodd"><path d="m2.94238 8.68188h4.28224v-3.34594h-4.28224z"/><path d="m2.94238 13.6382v1.1173h3.42838v-1.1173z"/><path d="m7.5558 13.6382v1.1173h3.4281v-1.1173z"/><path d="m2.94267 9.86653v1.11727h17.30743v-1.11727z"/></g></g></svg>

<svg width="26" height="18" viewBox="0 0 26 18" fill="none" xmlns="http://www.w3.org/2000/svg">
<path d="M23.3508 0.345703H3.39539C2.56844 0.345703 1.89562 1.01853 1.89562 1.84547V2.10129H1.84547C1.01853 2.10129 0.345703 2.77412 0.345703 3.60106V16.1536C0.345703 16.9806 1.01853 17.6534 1.84547 17.6534H21.8009C22.6278 17.6534 23.3009 16.9806 23.3009 16.1536V15.8978H23.3508C24.1777 15.8978 24.8505 15.225 24.8505 14.398V1.84547C24.8505 1.01853 24.1777 0.345703 23.3508 0.345703ZM22.8757 15.4731V15.6856V15.8981V16.1539C22.8757 16.7466 22.3935 17.2287 21.8006 17.2287H1.84519C1.25253 17.2287 0.770364 16.7466 0.770364 16.1539V3.60106C0.770364 3.0084 1.25253 2.52623 1.84519 2.52623H1.89533H2.1078H2.32028H21.8006C22.3935 2.52623 22.8757 3.0084 22.8757 3.60106V15.4731ZM24.4256 14.398C24.4256 14.9907 23.9434 15.4729 23.3508 15.4729H23.3009V3.60106C23.3009 2.77412 22.6281 2.10129 21.8009 2.10129H2.32028V1.84547C2.32028 1.25282 2.80245 0.770647 3.3951 0.770647H23.3505C23.9431 0.770647 24.4253 1.25282 24.4253 1.84547L24.4256 14.398Z" fill="white"/>
<path fill-rule="evenodd" clip-rule="evenodd" d="M3.39584 0H23.3512C24.3693 0 25.1971 0.827807 25.1971 1.84592V14.3985C25.1971 15.3162 24.5246 16.0793 23.6463 16.2209C23.611 17.2082 22.797 18 21.8013 18H1.84592C0.827807 18 0 17.1722 0 16.1541V3.60151C0 2.68372 0.672703 1.92058 1.55111 1.77909C1.58639 0.791826 2.40009 0 3.39584 0ZM22.53 3.60151C22.53 3.20009 22.2028 2.87284 21.801 2.87284H1.84564C1.44416 2.87284 1.11697 3.20003 1.11697 3.60151V16.1544C1.11697 16.5558 1.44416 16.883 1.84564 16.883H21.801C22.2028 16.883 22.53 16.5558 22.53 16.1544V3.60151ZM23.6475 15.0641C23.902 14.9502 24.0799 14.6946 24.0799 14.3985L24.0796 1.84592C24.0796 1.44444 23.7524 1.11725 23.3509 1.11725H3.39555C3.02465 1.11725 2.71716 1.3965 2.67246 1.75559H21.8013C22.8197 1.75559 23.6475 2.58335 23.6475 3.60151V15.0641ZM23.6475 15.4318C23.5534 15.4588 23.4539 15.4733 23.3512 15.4733H23.3014V3.60151C23.3014 2.77457 22.6285 2.10174 21.8013 2.10174H2.32073V1.84592C2.32073 1.8155 2.322 1.78537 2.32449 1.75559C2.37052 1.20504 2.83332 0.771098 3.39555 0.771098H23.3509C23.9436 0.771098 24.4258 1.25327 24.4258 1.84592L24.426 14.3985C24.426 14.8884 24.0965 15.3028 23.6475 15.4318ZM3.39584 0.346154H23.3512C24.1782 0.346154 24.851 1.01898 24.851 1.84592V14.3985C24.851 15.2254 24.1782 15.8983 23.3512 15.8983H23.3014V16.1541C23.3014 16.981 22.6282 17.6538 21.8013 17.6538H1.84592C1.01898 17.6538 0.346154 16.981 0.346154 16.1541V3.60151C0.346154 2.77457 1.01898 2.10174 1.84592 2.10174H1.89607V1.84592C1.89607 1.01898 2.5689 0.346154 3.39584 0.346154ZM22.8761 3.60151C22.8761 3.00885 22.394 2.52668 21.801 2.52668H1.84564C1.25298 2.52668 0.770815 3.00885 0.770815 3.60151V16.1544C0.770815 16.747 1.25298 17.2292 1.84564 17.2292H21.801C22.394 17.2292 22.8761 16.747 22.8761 16.1544V3.60151Z" fill="white"/>
<path d="M20.3319 13.5433L20.3319 13.5434C20.3402 13.5943 20.346 13.6468 20.3472 13.7014C20.3473 13.7039 20.3476 13.7072 20.3479 13.711C20.3488 13.7243 20.3503 13.744 20.3503 13.7601C20.3503 13.7909 20.348 13.8215 20.346 13.8477C20.3457 13.8516 20.3455 13.8555 20.3452 13.8592L20.3452 13.8594C20.3124 14.3021 20.0644 14.6873 19.7015 14.9203C19.6021 14.9842 19.4941 15.0348 19.3816 15.0737L19.3816 15.0737C19.2266 15.1272 19.0595 15.1581 18.8843 15.1581C18.7092 15.1581 18.5423 15.1272 18.3873 15.0737L18.3873 15.0737C18.2821 15.0373 18.1808 14.9908 18.0869 14.9326C17.993 14.9908 17.8917 15.0373 17.7866 15.0737L17.7865 15.0737C17.6313 15.1272 17.4645 15.1581 17.2893 15.1581C17.1141 15.1581 16.9472 15.1272 16.7921 15.0737L16.792 15.0737C16.6795 15.0348 16.5715 14.9842 16.4721 14.9203L20.3319 13.5433ZM20.3319 13.5433C20.274 13.1908 20.0789 12.8826 19.801 12.6698M20.3319 13.5433L19.6493 12.569C19.701 12.5993 19.7522 12.6324 19.801 12.6698M18.9299 12.464C18.9234 12.4638 18.917 12.4634 18.9106 12.463C18.9022 12.4625 18.8937 12.4619 18.8851 12.4619C18.8474 12.4619 18.8101 12.4644 18.773 12.4673C18.7218 12.4713 18.6711 12.4774 18.6215 12.4867L18.6032 12.3884C18.6032 12.3884 18.6031 12.3884 18.6031 12.3884C18.4158 12.4233 18.2417 12.493 18.0873 12.589C17.8698 12.4538 17.6131 12.3727 17.3373 12.3641L17.3373 12.3641L17.3368 12.364C17.3323 12.3639 17.3279 12.3636 17.3212 12.3632C17.3203 12.3632 17.3194 12.3631 17.3184 12.363C17.3108 12.3625 17.3006 12.3619 17.2895 12.3619C17.2477 12.3619 17.2072 12.3647 17.1697 12.3675L17.1695 12.3676L18.9299 12.464ZM18.9299 12.464C19.1158 12.4697 19.2922 12.5107 19.4522 12.5805C19.5028 12.6026 19.5517 12.6276 19.5987 12.6552M18.9299 12.464L19.5987 12.6552M19.801 12.6698L19.7401 12.7492M19.801 12.6698C19.801 12.6698 19.8009 12.6698 19.8009 12.6698L19.7401 12.7492M19.7401 12.7492C19.6954 12.7149 19.6478 12.684 19.5987 12.6552M19.7401 12.7492L19.5987 12.6552M17.1773 12.4673C17.2145 12.4644 17.2518 12.4619 17.2895 12.4619C17.2981 12.4619 17.3064 12.4625 17.3147 12.463C17.3212 12.4634 17.3276 12.4638 17.3342 12.464L17.1773 12.4673ZM17.1773 12.4673C17.1262 12.4713 17.0754 12.4774 17.0259 12.4867L17.1773 12.4673ZM17.1876 12.7576L17.1965 12.8572C17.2106 12.8559 17.2257 12.854 17.2381 12.8524C17.2426 12.8518 17.2467 12.8513 17.2503 12.8508C17.2659 12.8489 17.2781 12.8479 17.2895 12.8479C17.291 12.8479 17.2938 12.848 17.3018 12.8491C17.3026 12.8492 17.3035 12.8493 17.3045 12.8495C17.3114 12.8504 17.3231 12.852 17.3349 12.8527L17.3349 12.8527L17.3359 12.8527C17.4665 12.8586 17.5899 12.8884 17.7012 12.9379C17.631 13.0296 17.572 13.1297 17.5265 13.2368L17.5264 13.237C17.5036 13.2909 17.485 13.3461 17.4694 13.4016L17.4694 13.4017C17.4536 13.4582 17.4412 13.5164 17.4331 13.576L17.5322 13.5895L17.4332 13.5756C17.425 13.6345 17.419 13.696 17.419 13.7601C17.419 14.0683 17.5249 14.3522 17.7016 14.5825C17.5765 14.6395 17.4373 14.6721 17.2897 14.6721C16.7526 14.6721 16.3245 14.2581 16.3245 13.7601C16.3245 13.3357 16.6359 12.9749 17.0616 12.8766L17.0619 12.8765C17.1029 12.8669 17.1468 12.8619 17.197 12.8571L17.1876 12.7576ZM17.1876 12.7576C17.137 12.7623 17.0873 12.7679 17.0391 12.7791L17.7671 12.8582C17.6377 12.7965 17.4932 12.7597 17.3404 12.7528C17.333 12.7524 17.3257 12.7514 17.3184 12.7504C17.3089 12.7491 17.2994 12.7479 17.2895 12.7479C17.2669 12.7479 17.2451 12.7507 17.2234 12.7534C17.2115 12.755 17.1996 12.7565 17.1876 12.7576ZM19.9475 13.7321L19.8476 13.7342C19.8477 13.7411 19.8483 13.7471 19.8489 13.7516L19.8504 13.7617C19.8504 13.762 19.8505 13.7624 19.8505 13.7627C19.8502 13.7821 19.8478 13.7985 19.8446 13.8203C19.8429 13.8323 19.8409 13.8459 19.8388 13.8626L19.8388 13.8627L18.3688 12.9924C18.4559 12.9397 18.5531 12.9004 18.6572 12.8764L18.6575 12.8763C18.6985 12.8667 18.7424 12.8617 18.7926 12.8569L18.7832 12.7574M19.9475 13.7321L19.8476 13.7353C19.8462 13.6904 19.8415 13.6466 19.8336 13.6041L19.8336 13.604C19.8003 13.4238 19.712 13.2618 19.5833 13.1336L19.5833 13.1336C19.5515 13.1019 19.5149 13.073 19.4737 13.0427C19.4359 13.015 19.3956 12.9903 19.3524 12.9674L19.3522 12.9674C19.2261 12.9005 19.0842 12.8596 18.9314 12.8525L18.9306 12.8525L18.9306 12.8525C18.9187 12.8518 18.9071 12.8502 18.9001 12.8493C18.8991 12.8491 18.8982 12.849 18.8975 12.8489C18.8894 12.8478 18.8867 12.8477 18.8851 12.8477C18.8738 12.8477 18.8615 12.8488 18.8458 12.8507C18.8422 12.8511 18.838 12.8516 18.8335 12.8522C18.8211 12.8538 18.8061 12.8557 18.7922 12.857L18.7832 12.7574M19.9475 13.7321C19.9476 13.7367 19.9483 13.7411 19.949 13.7455C19.9498 13.7502 19.9506 13.755 19.9506 13.7599L19.9475 13.7321ZM18.7832 12.7574C18.7327 12.7622 18.6829 12.7677 18.6348 12.7789L19.5329 12.9621C19.4906 12.931 19.446 12.9038 19.3991 12.879C19.2603 12.8054 19.104 12.7604 18.9361 12.7526C18.9286 12.7522 18.9213 12.7512 18.914 12.7502C18.9045 12.749 18.895 12.7477 18.8851 12.7477C18.8624 12.7477 18.8405 12.7505 18.8187 12.7533C18.8069 12.7548 18.7951 12.7563 18.7832 12.7574ZM17.9203 13.7685L17.9201 13.7685C17.9224 13.992 18.0136 14.1958 18.161 14.3557C18.1918 14.389 18.2247 14.4198 18.2604 14.4487L18.1974 14.5264L18.2602 14.4485C18.2978 14.4789 18.3323 14.5053 18.3688 14.5274L17.9203 13.7685ZM17.9203 13.7685V13.758M17.9203 13.7685V13.758M17.9203 13.758C17.9203 13.7157 17.9268 13.6739 17.9351 13.6232L17.9351 13.6232M17.9203 13.758L17.9351 13.6232M17.9351 13.6232C17.9423 13.5786 17.9536 13.5353 17.9683 13.491L17.9684 13.4909M17.9351 13.6232L17.9684 13.4909M17.9684 13.4909C18.0088 13.3687 18.0741 13.2582 18.161 13.1639L17.9684 13.4909ZM18.2606 13.0709L18.2606 13.0709C18.2247 13.1001 18.1915 13.1308 18.161 13.1639L18.2606 13.0709ZM18.2606 13.0709C18.2973 13.041 18.3321 13.0146 18.3687 12.9924L18.2606 13.0709ZM17.0075 12.3884C16.3372 12.5135 15.8233 13.0774 15.8233 13.7601C15.8233 14.2445 16.0828 14.6701 16.4721 14.9203L17.0075 12.3884ZM17.6185 13.2759C17.5976 13.3253 17.5804 13.3764 17.5657 13.4286L17.6185 13.2759Z" fill="white" stroke="white" stroke-width="0.2"/>
<path fill-rule="evenodd" clip-rule="evenodd" d="M2.94238 8.68188H7.22462V5.33594H2.94238V8.68188Z" fill="white"/>
<path fill-rule="evenodd" clip-rule="evenodd" d="M2.94238 13.6382V14.7555H6.37076V13.6382H2.94238Z" fill="white"/>
<path fill-rule="evenodd" clip-rule="evenodd" d="M7.5558 13.6382V14.7555H10.9839V13.6382H7.5558Z" fill="white"/>
<path fill-rule="evenodd" clip-rule="evenodd" d="M2.94267 9.86653V10.9838H20.2501V9.86653H2.94267Z" fill="white"/>
</svg>
